X: 8
T: The Fair Wind
R: reel
M: 4/4
L: 1/8
K: Gmaj
|:G3D G3A|BAGA BAAB|G3D G3B|1 ABGE EDDE:|2 ABGE EDDA|
|:BddB G3A|BddB cAAc|BddB G3B|1 ABGE EDDA:|2 ABGE EDDE|
|:GE E/E/E c3A|B2GB AcBA|GE E/E/E cBcB|ABGE EDDE:|

